src/assets/images/lights.svg

<svg xmlns="http://www.w3.org/2000/svg" width="1920" height="1354" fill="none"  xmlns:v="https://vecta.io/nano"><style><![CDATA[.B{color-interpolation-filters:sRGB}.C{flood-opacity:0}.D{fill:#41ead4}.E{fill-rule:evenodd}.F{fill:#7741ea}]]></style><g opacity=".5" filter="url(#A)" class="D"><path d="M371.967 330.434c-48.515-25.571-15.158-64.114 7.584-80.189-277.918 44.835-125.782 78.212-134.452 128.854s155.71 42.125 182.587 21.12 4.924-37.822-55.719-69.785z"/></g><g opacity=".15" filter="url(#B)" class="D"><path d="M373.843 1047.63c-91.54-48.261-28.589-121.015 14.329-151.36-524.434 84.652-237.366 147.64-253.736 243.23s293.81 79.5 344.531 39.85 9.301-71.39-105.124-131.72z"/></g><g opacity=".1" filter="url(#C)"><path d="M499.575 1148.21c-2.381-60.25-109.698-73.5-163.06-72.59 357.773-158.794 274.366-15.45 381.124 27.57s-69.907 154.47-136.865 153.59-78.222-33.25-81.199-108.57z" fill="#41adea"/></g><g opacity=".5" filter="url(#D)" class="D"><path d="M1394.03 527.088c48.51-25.571 15.16-64.113-7.59-80.188 277.92 44.835 125.79 78.212 134.46 128.854s-155.71 42.124-182.59 21.12-4.92-37.822 55.72-69.786z"/></g><g opacity=".5" filter="url(#E)" class="F"><path d="M1326.9 475.619c24.6-12.967 7.68-32.513-3.85-40.664 140.93 22.736 63.79 39.662 68.18 65.343 4.4 25.681-78.96 21.361-92.59 10.71s-2.5-19.18 28.26-35.389z"/></g><g opacity=".5" filter="url(#F)" class="F"><path d="M398.753 403.187c24.602-12.967 7.687-32.513-3.846-40.664 140.934 22.736 63.785 39.662 68.182 65.343s-78.962 21.361-92.591 10.71-2.497-19.18 28.255-35.389z"/></g><g opacity=".1" filter="url(#G)" class="E F"><path d="M1267.4 337.085c105.1-8.158 210.08 24.01 276.46 74.588 66.69 50.813 91.82 119.857 60.54 182.18-28.98 57.766-118.59 91.618-209.62 114.909-83.73 21.42-175.13 26.681-258.59 4.887-88.8-23.185-174.66-63.627-189.96-122.01-14.599-55.705 64.2-98.292 120.52-142.931 58.13-46.071 106.35-104.303 200.65-111.623z"/></g><g opacity=".1" filter="url(#H)" class="E F"><path d="M1527.16 774.304c105.1-8.158 210.07 24.01 276.46 74.588 66.69 50.813 91.82 119.857 60.54 182.178-28.99 57.77-118.6 91.62-209.63 114.91-83.72 21.42-175.12 26.68-258.59 4.89-88.79-23.19-174.65-63.63-189.95-122.01-14.6-55.707 64.2-98.294 120.52-142.933 58.13-46.071 106.35-104.303 200.65-111.623z"/></g><g opacity=".07" filter="url(#I)" class="D E"><path d="M603.605 279.657c135.7-10.534 271.242 31.001 356.954 96.306 86.111 65.61 118.551 154.759 78.171 235.229-37.43 74.587-153.128 118.296-270.664 148.369-108.099 27.658-226.116 34.451-333.883 6.311-114.647-29.936-225.512-82.155-245.268-157.538-18.849-71.926 82.898-126.914 155.618-184.551 75.054-59.487 137.317-134.674 259.072-144.126z"/></g><g opacity=".1" filter="url(#J)" class="D E"><path d="M1504.02 849.731c-135.7-10.534-271.24 31-356.95 96.306-86.11 65.613-118.56 154.763-78.17 235.233 37.42 74.58 153.13 118.29 270.66 148.36 108.1 27.66 226.12 34.46 333.89 6.32 114.64-29.94 225.51-82.16 245.26-157.54 18.85-71.93-82.89-126.92-155.61-184.554-75.06-59.486-137.32-134.674-259.08-144.125z"/></g><g opacity=".11" filter="url(#K)" class="E"><path d="M501.05 279.256c102.326-7.939 204.532 23.366 269.162 72.587 64.932 49.45 89.397 116.643 58.948 177.294-28.223 56.217-115.469 89.161-204.098 111.827-81.511 20.846-170.503 25.966-251.764 4.757-86.45-22.564-170.049-61.922-184.945-118.738-14.213-54.211 62.509-95.656 117.344-139.098 56.594-44.836 103.544-101.505 195.353-108.629z" fill="#be41ea"/></g><defs><filter id="A" x="-38.749" y=".245" width="727.751" height="666.494" filterUnits="userSpaceOnUse" class="B"><feFlood class="C"/><feBlend in="SourceGraphic"/><feGaussianBlur stdDeviation="125"/></filter><filter id="B" x="-179.42" y="646.27" width="929.745" height="814.269" filterUnits="userSpaceOnUse" class="B"><feFlood class="C"/><feBlend in="SourceGraphic"/><feGaussianBlur stdDeviation="125"/></filter><filter id="C" x="86.515" y="752.614" width="914.622" height="754.174" filterUnits="userSpaceOnUse" class="B"><feFlood class="C"/><feBlend in="SourceGraphic"/><feGaussianBlur stdDeviation="125"/></filter><filter id="D" x="1076.99" y="196.9" width="727.751" height="666.494" filterUnits="userSpaceOnUse" class="B"><feFlood class="C"/><feBlend in="SourceGraphic"/><feGaussianBlur stdDeviation="125"/></filter><filter id="E" x="1042.9" y="184.955" width="615.494" height="584.43" filterUnits="userSpaceOnUse" class="B"><feFlood class="C"/><feBlend in="SourceGraphic"/><feGaussianBlur stdDeviation="125"/></filter><filter id="F" x="114.759" y="112.523" width="615.494" height="584.43" filterUnits="userSpaceOnUse" class="B"><feFlood class="C"/><feBlend in="SourceGraphic"/><feGaussianBlur stdDeviation="125"/></filter><filter id="G" x="694.459" y="85.824" width="1173.29" height="891.808" filterUnits="userSpaceOnUse" class="B"><feFlood class="C"/><feBlend in="SourceGraphic"/><feGaussianBlur stdDeviation="125"/></filter><filter id="H" x="954.216" y="523.043" width="1173.29" height="891.808" filterUnits="userSpaceOnUse" class="B"><feFlood class="C"/><feBlend in="SourceGraphic"/><feGaussianBlur stdDeviation="125"/></filter><filter id="I" x="-63.371" y="28.028" width="1369.33" height="1005.9" filterUnits="userSpaceOnUse" class="B"><feFlood class="C"/><feBlend in="SourceGraphic"/><feGaussianBlur stdDeviation="125"/></filter><filter id="J" x="801.67" y="598.102" width="1369.33" height="1005.9" filterUnits="userSpaceOnUse" class="B"><feFlood class="C"/><feBlend in="SourceGraphic"/><feGaussianBlur stdDeviation="125"/></filter><filter id="K" x="-63.371" y="28.028" width="1155.52" height="881.3" filterUnits="userSpaceOnUse" class="B"><feFlood class="C"/><feBlend in="SourceGraphic"/><feGaussianBlur stdDeviation="125"/></filter></defs></svg>

<svg width="1920" height="1354" viewBox="0 0 1920 1354" fill="none" xmlns="http://www.w3.org/2000/svg">
<g opacity="0.5" filter="url(#filter0_f)">
<path d="M371.967 330.434C323.452 304.863 356.809 266.32 379.551 250.245C101.633 295.08 253.769 328.457 245.099 379.099C236.43 429.742 400.809 421.224 427.686 400.219C454.563 379.215 432.61 362.397 371.967 330.434Z" fill="#41EAD4"/>
</g>
<g opacity="0.15" filter="url(#filter1_f)">
<path d="M373.843 1047.63C282.303 999.369 345.254 926.615 388.172 896.27C-136.262 980.922 150.806 1043.91 134.436 1139.5C118.066 1235.09 428.246 1219 478.967 1179.35C529.688 1139.7 488.268 1107.96 373.843 1047.63Z" fill="#41EAD4"/>
</g>
<g opacity="0.1" filter="url(#filter2_f)">
<path d="M499.575 1148.21C497.194 1087.96 389.877 1074.71 336.515 1075.62C694.288 916.826 610.881 1060.17 717.639 1103.19C824.398 1146.21 647.732 1257.66 580.774 1256.78C513.816 1255.9 502.552 1223.53 499.575 1148.21Z" fill="#41ADEA"/>
</g>
<g opacity="0.5" filter="url(#filter3_f)">
<path d="M1394.03 527.088C1442.54 501.517 1409.19 462.975 1386.44 446.9C1664.36 491.735 1512.23 525.112 1520.9 575.754C1529.57 626.396 1365.19 617.878 1338.31 596.874C1311.43 575.87 1333.39 559.052 1394.03 527.088Z" fill="#41EAD4"/>
</g>
<g opacity="0.5" filter="url(#filter4_f)">
<path d="M1326.9 475.619C1351.5 462.652 1334.58 443.106 1323.05 434.955C1463.98 457.691 1386.84 474.617 1391.23 500.298C1395.63 525.979 1312.27 521.659 1298.64 511.008C1285.01 500.356 1296.14 491.828 1326.9 475.619Z" fill="#7741EA"/>
</g>
<g opacity="0.5" filter="url(#filter5_f)">
<path d="M398.753 403.187C423.355 390.22 406.44 370.674 394.907 362.523C535.841 385.259 458.692 402.185 463.089 427.866C467.485 453.547 384.127 449.227 370.498 438.576C356.868 427.924 368.001 419.396 398.753 403.187Z" fill="#7741EA"/>
</g>
<g opacity="0.1" filter="url(#filter6_f)">
<path fill-rule="evenodd" clip-rule="evenodd" d="M1267.4 337.085C1372.5 328.927 1477.48 361.095 1543.86 411.673C1610.55 462.486 1635.68 531.53 1604.4 593.853C1575.42 651.619 1485.81 685.471 1394.78 708.762C1311.05 730.182 1219.65 735.443 1136.19 713.649C1047.39 690.464 961.53 650.022 946.23 591.639C931.631 535.934 1010.43 493.347 1066.75 448.708C1124.88 402.637 1173.1 344.405 1267.4 337.085Z" fill="#7741EA"/>
</g>
<g opacity="0.1" filter="url(#filter7_f)">
<path fill-rule="evenodd" clip-rule="evenodd" d="M1527.16 774.304C1632.26 766.146 1737.23 798.314 1803.62 848.892C1870.31 899.705 1895.44 968.749 1864.16 1031.07C1835.17 1088.84 1745.56 1122.69 1654.53 1145.98C1570.81 1167.4 1479.41 1172.66 1395.94 1150.87C1307.15 1127.68 1221.29 1087.24 1205.99 1028.86C1191.39 973.153 1270.19 930.566 1326.51 885.927C1384.64 839.856 1432.86 781.624 1527.16 774.304Z" fill="#7741EA"/>
</g>
<g opacity="0.07" filter="url(#filter8_f)">
<path fill-rule="evenodd" clip-rule="evenodd" d="M603.605 279.657C739.305 269.123 874.847 310.658 960.559 375.963C1046.67 441.573 1079.11 530.722 1038.73 611.192C1001.3 685.779 885.602 729.488 768.066 759.561C659.967 787.219 541.95 794.012 434.183 765.872C319.536 735.936 208.671 683.717 188.915 608.334C170.066 536.408 271.813 481.42 344.533 423.783C419.587 364.296 481.85 289.109 603.605 279.657Z" fill="#41EAD4"/>
</g>
<g opacity="0.1" filter="url(#filter9_f)">
<path fill-rule="evenodd" clip-rule="evenodd" d="M1504.02 849.731C1368.32 839.197 1232.78 880.731 1147.07 946.037C1060.96 1011.65 1028.51 1100.8 1068.9 1181.27C1106.32 1255.85 1222.03 1299.56 1339.56 1329.63C1447.66 1357.29 1565.68 1364.09 1673.45 1335.95C1788.09 1306.01 1898.96 1253.79 1918.71 1178.41C1937.56 1106.48 1835.82 1051.49 1763.1 993.856C1688.04 934.37 1625.78 859.182 1504.02 849.731Z" fill="#41EAD4"/>
</g>
<g opacity="0.11" filter="url(#filter10_f)">
<path fill-rule="evenodd" clip-rule="evenodd" d="M501.05 279.256C603.376 271.317 705.582 302.622 770.212 351.843C835.144 401.293 859.609 468.486 829.16 529.137C800.937 585.354 713.691 618.298 625.062 640.964C543.551 661.81 454.559 666.93 373.298 645.721C286.848 623.157 203.249 583.799 188.353 526.983C174.14 472.772 250.862 431.327 305.697 387.885C362.291 343.049 409.241 286.38 501.05 279.256Z" fill="#BE41EA"/>
</g>
<defs>
<filter id="filter0_f" x="-38.7495" y="0.244926" width="727.751" height="666.494" filterUnits="userSpaceOnUse" color-interpolation-filters="sRGB">
<feFlood flood-opacity="0" result="BackgroundImageFix"/>
<feBlend mode="normal" in="SourceGraphic" in2="BackgroundImageFix" result="shape"/>
<feGaussianBlur stdDeviation="125" result="effect1_foregroundBlur"/>
</filter>
<filter id="filter1_f" x="-179.42" y="646.27" width="929.745" height="814.269" filterUnits="userSpaceOnUse" color-interpolation-filters="sRGB">
<feFlood flood-opacity="0" result="BackgroundImageFix"/>
<feBlend mode="normal" in="SourceGraphic" in2="BackgroundImageFix" result="shape"/>
<feGaussianBlur stdDeviation="125" result="effect1_foregroundBlur"/>
</filter>
<filter id="filter2_f" x="86.5154" y="752.614" width="914.622" height="754.174" filterUnits="userSpaceOnUse" color-interpolation-filters="sRGB">
<feFlood flood-opacity="0" result="BackgroundImageFix"/>
<feBlend mode="normal" in="SourceGraphic" in2="BackgroundImageFix" result="shape"/>
<feGaussianBlur stdDeviation="125" result="effect1_foregroundBlur"/>
</filter>
<filter id="filter3_f" x="1076.99" y="196.9" width="727.751" height="666.494" filterUnits="userSpaceOnUse" color-interpolation-filters="sRGB">
<feFlood flood-opacity="0" result="BackgroundImageFix"/>
<feBlend mode="normal" in="SourceGraphic" in2="BackgroundImageFix" result="shape"/>
<feGaussianBlur stdDeviation="125" result="effect1_foregroundBlur"/>
</filter>
<filter id="filter4_f" x="1042.9" y="184.955" width="615.494" height="584.43" filterUnits="userSpaceOnUse" color-interpolation-filters="sRGB">
<feFlood flood-opacity="0" result="BackgroundImageFix"/>
<feBlend mode="normal" in="SourceGraphic" in2="BackgroundImageFix" result="shape"/>
<feGaussianBlur stdDeviation="125" result="effect1_foregroundBlur"/>
</filter>
<filter id="filter5_f" x="114.759" y="112.523" width="615.494" height="584.43" filterUnits="userSpaceOnUse" color-interpolation-filters="sRGB">
<feFlood flood-opacity="0" result="BackgroundImageFix"/>
<feBlend mode="normal" in="SourceGraphic" in2="BackgroundImageFix" result="shape"/>
<feGaussianBlur stdDeviation="125" result="effect1_foregroundBlur"/>
</filter>
<filter id="filter6_f" x="694.459" y="85.8239" width="1173.29" height="891.808" filterUnits="userSpaceOnUse" color-interpolation-filters="sRGB">
<feFlood flood-opacity="0" result="BackgroundImageFix"/>
<feBlend mode="normal" in="SourceGraphic" in2="BackgroundImageFix" result="shape"/>
<feGaussianBlur stdDeviation="125" result="effect1_foregroundBlur"/>
</filter>
<filter id="filter7_f" x="954.216" y="523.043" width="1173.29" height="891.808" filterUnits="userSpaceOnUse" color-interpolation-filters="sRGB">
<feFlood flood-opacity="0" result="BackgroundImageFix"/>
<feBlend mode="normal" in="SourceGraphic" in2="BackgroundImageFix" result="shape"/>
<feGaussianBlur stdDeviation="125" result="effect1_foregroundBlur"/>
</filter>
<filter id="filter8_f" x="-63.3714" y="28.0284" width="1369.33" height="1005.9" filterUnits="userSpaceOnUse" color-interpolation-filters="sRGB">
<feFlood flood-opacity="0" result="BackgroundImageFix"/>
<feBlend mode="normal" in="SourceGraphic" in2="BackgroundImageFix" result="shape"/>
<feGaussianBlur stdDeviation="125" result="effect1_foregroundBlur"/>
</filter>
<filter id="filter9_f" x="801.67" y="598.102" width="1369.33" height="1005.9" filterUnits="userSpaceOnUse" color-interpolation-filters="sRGB">
<feFlood flood-opacity="0" result="BackgroundImageFix"/>
<feBlend mode="normal" in="SourceGraphic" in2="BackgroundImageFix" result="shape"/>
<feGaussianBlur stdDeviation="125" result="effect1_foregroundBlur"/>
</filter>
<filter id="filter10_f" x="-63.3714" y="28.0284" width="1155.52" height="881.3" filterUnits="userSpaceOnUse" color-interpolation-filters="sRGB">
<feFlood flood-opacity="0" result="BackgroundImageFix"/>
<feBlend mode="normal" in="SourceGraphic" in2="BackgroundImageFix" result="shape"/>
<feGaussianBlur stdDeviation="125" result="effect1_foregroundBlur"/>
</filter>
</defs>
</svg>
